pix_core/e/layers.svg

<!DOCTYPE svg PUBLIC "-//W3C//DTD SVG 1.1//EN" "http://www.w3.org/Graphics/SVG/1.1/DTD/svg11.dtd" [
	<!ENTITY ns_flows "http://ns.adobe.com/Flows/1.0/">
]><svg xmlns="http://www.w3.org/2000/svg" width="16" height="16" viewBox="0 0 16 16" preserveAspectRatio="xMinYMid meet" overflow="visible"><path d="M13.1 10.6l2.9 1.4-8 4-8-4 2.9-1.4 1.1.5-1.8.9 5.8 2.9 5.8-2.9-1.8-.9 1.1-.5zm-1.1-3.5l1.8.9-5.8 2.9-5.8-2.9 1.8-.9-1.1-.5-2.9 1.4 8 4 8-4-2.9-1.4-1.1.5zm4-3.1l-8 4-8-4 8-4 8 4zm-8 2.9l5.8-2.9-5.8-2.9-5.8 2.9 5.8 2.9z" fill="#1F4D87"/></svg>

<?xml version="1.0" encoding="utf-8"?>
<!-- Generator: Adobe Illustrator 15.1.0, SVG Export Plug-In  -->
<!DOCTYPE svg PUBLIC "-//W3C//DTD SVG 1.1//EN" "http://www.w3.org/Graphics/SVG/1.1/DTD/svg11.dtd" [
	<!ENTITY ns_flows "http://ns.adobe.com/Flows/1.0/">
]>
<svg version="1.1"
	 xmlns="http://www.w3.org/2000/svg" xmlns:xlink="http://www.w3.org/1999/xlink" xmlns:a="http://ns.adobe.com/AdobeSVGViewerExtensions/3.0/"
	 x="0px" y="0px" width="16px" height="16px" viewBox="0 0 16 16" style="overflow:visible;enable-background:new 0 0 16 16;"
	 xml:space="preserve" preserveAspectRatio="xMinYMid meet">
<defs>
</defs>
<path style="fill:#1F4D87;" d="M13.1,10.6L16,12l-8,4l-8-4l2.9-1.4L4,11.1L2.2,12L8,14.9l5.8-2.9L12,11.1L13.1,10.6z M12,7.1L13.8,8
	L8,10.9L2.2,8L4,7.1L2.9,6.6L0,8l8,4l8-4l-2.9-1.4L12,7.1z M16,4L8,8L0,4l8-4L16,4z M8,6.9L13.8,4L8,1.1L2.2,4L8,6.9z"/>
</svg>
